X: 1
T: Polska fr\aan Viksta II
C: uppt. Ingvar Norman
C: arr. Alm Nils Ersson
R: polska
M: 3/4
L: 1/8
Z: 2010 John Chambers <jc:trillian.mit.edu>
S: printed MS of unknown origin p.65 (Svenska l\aatar?)
K: G
V: 1
|: B>{cB}A G2 G<F | A{BA}F/A/ G3 D | G>A {BA}B2 B>c | Bc {c}d2 BG | A2 D4 :|
|: d>c (Bc) (de) | c>B (AB) (cd) | d>c (B>c) (de) | c>B (AB) (cA) | d>B G2 AG | (F{GF}E/)F/ [G4G,4] :|
V: 2
|:  G,>C B,>G, E<D | CD B,>G, A,B, | E>D {GF}GD G,2 | GA B2 GE | ^C2 D4 :|
|: B2 (GA) (B^G) | A2 D2 (FA) | B2 GE DB, | A,2 C2 DC | B,2 E>D CE | DA, [D4B,4] :|
